svg/blobs-icons/no-decorations/plane.svg

<svg xmlns="http://www.w3.org/2000/svg" xmlns:xlink="http://www.w3.org/1999/xlink" preserveAspectRatio="xMidYMid" width="218" height="120" viewBox="0 0 218 120"><defs><style>.cls-3{fill:#142a3b}.cls-4{fill:#fbb713}.cls-6{fill:#ff3a2f}.cls-7{fill:#020403;opacity:.35}.cls-8{fill:#fff}</style></defs><g id="group-48svg"><path d="M72.117 86.226s-72.124.0-72.124.0.0-9.247.0-9.247 72.124.0 72.124.0.0 9.247.0 9.247z" id="path-1" class="cls-3" fill-rule="evenodd"/><path d="M102.142 28.353s0-28.341.0-28.341 9.887.0 9.887.0.0 28.341.0 28.341-9.887.0-9.887.0z" id="path-2" class="cls-4" fill-rule="evenodd"/><path d="M216.867 86.226s-72.123.0-72.123.0.0-9.247.0-9.247 72.123.0 72.123.0.0 9.247.0 9.247z" id="path-3" class="cls-3" fill-rule="evenodd"/><path d="M153.419 65.883c0 25.534-20.699 46.235-46.233 46.235-25.533.0-46.232-20.701-46.232-46.235.0-25.534 46.232-50.571 46.232-50.571s46.233 25.037 46.233 50.571z" id="path-4" class="cls-6" fill-rule="evenodd"/><path d="M153.191 62.904C153.153 62.624 153.103 62.343 153.055 62.064 152.921 61.287 152.748 60.511 152.54 59.738 152.476 59.505 152.426 59.271 152.356 59.039 152.066 58.069 151.723 57.102 151.326 56.14 151.238 55.928 151.133 55.717 151.041 55.505 150.702 54.729 150.332 53.96 149.931 53.193 149.784 52.913 149.637 52.632 149.483 52.353 149.013 51.503 148.513 50.658 147.976 49.821 147.91 49.718 147.851 49.613 147.784 49.51 147.177 48.579 146.523 47.661 145.844 46.75 145.646 46.484 145.441 46.223 145.238 45.959 144.701 45.264 144.148 44.574 143.576 43.892 143.375 43.651 143.178 43.409 142.972 43.17 142.22 42.295 141.446 41.431 140.647 40.58 140.494 40.416 140.333 40.258 140.178 40.095 139.498 39.383 138.805 38.681 138.1 37.989 137.855 37.749 137.61 37.509 137.362 37.27 136.624 36.561 135.877 35.862 135.121 35.175 134.993 35.06 134.867 34.94 134.74 34.826 133.847 34.023 132.946 33.241 132.04 32.473 131.838 32.302 131.636 32.137 131.434 31.967 130.685 31.34 129.935 30.727 129.186 30.128 128.991 29.972 128.795 29.812 128.6 29.658 126.748 28.192 124.912 26.811 123.137 25.531 122.979 25.417 122.821 25.303 122.664 25.19 121.814 24.581 120.975 23.99 120.162 23.429 120.141 23.414 120.119 23.399 120.099 23.384 119.2 22.766 118.327 22.177 117.487 21.62 114.608 19.712 112.112 18.175 110.302 17.101 109.827 16.819 109.401 16.57 109.025 16.352 108.977 16.324 108.939 16.302 108.893 16.276 108.577 16.093 108.293 15.931 108.06 15.8 108.017 15.776 107.975 15.751 107.935 15.729 107.74 15.62 107.578 15.528 107.459 15.463 107.43 15.446 107.387 15.422 107.363 15.408 107.266 15.355 107.187 15.312 107.187 15.312S107.039 15.392 106.813 15.518C106.621 15.626 106.382 15.758 106.044 15.952 106.038 15.955 106.029 15.96 106.023 15.964 105.783 16.1 105.51 16.257 105.203 16.435 105.503 16.649 105.812 16.881 106.115 17.101H104.07C101.568 18.587 97.757 20.954 93.422 23.979h21.467c10.878 9.247 21.18 21.174 21.18 33.229.0 25.534-20.699 46.234-46.232 46.234C85.833 103.442 81.969 102.879 78.264 101.922 80.051 103.359 81.961 104.646 83.951 105.809 84.189 105.947 84.416 106.103 84.656 106.238 85.38 106.643 86.132 107.003 86.879 107.37 87.396 107.623 87.908 107.886 88.436 108.12 89.115 108.423 89.81 108.695 90.507 108.966 91.146 109.212 91.788 109.454 92.44 109.674 93.087 109.892 93.742 110.096 94.402 110.286 95.156 110.503 95.918 110.695 96.687 110.873 97.29 111.015 97.892 111.158 98.504 111.275 99.415 111.449 100.341 111.578 101.271 111.697 101.771 111.762 102.265 111.846 102.77 111.894 104.225 112.031 105.696 112.118 107.187 112.118c14.362.0 27.195-6.551 35.675-16.826C143.804 94.151 144.692 92.962 145.523 91.733 150.508 84.354 153.419 75.459 153.419 65.883 153.419 64.889 153.326 63.895 153.191 62.904z" id="path-5" class="cls-7" fill-rule="evenodd"/><path d="M72.039 84.273C70.531 84.273 69.122 83.322 68.614 81.812c-1.724-5.118-2.599-10.478-2.599-15.929C66.015 59.665 68.378 53.091 73.037 46.339 74.17 44.698 76.422 44.284 78.063 45.418 79.707 46.552 80.12 48.802 78.985 50.446c-3.809 5.52-5.742 10.714-5.742 15.437C73.243 70.548 73.99 75.131 75.466 79.504 76.102 81.396 75.086 83.446 73.194 84.083 72.811 84.213 72.423 84.273 72.039 84.273z" id="path-6" class="cls-8" fill-rule="evenodd"/><path d="M144.172 20.927s-72.122.0-72.122.0.0-9.247.0-9.247 72.122.0 72.122.0.0 9.247.0 9.247z" id="path-7" class="cls-3" fill-rule="evenodd"/><path d="M53.624 102.87C53.624 112.063 46.172 119.515 36.98 119.515c-9.192.0-16.644-7.452-16.644-16.645C20.336 93.678 27.788 86.226 36.98 86.226s16.644 7.452 16.644 16.644z" id="path-8" class="cls-4" fill-rule="evenodd"/><path d="M36.98 86.227C31.275 86.227 26.249 89.103 23.25 93.478 25.925 91.644 29.155 90.564 32.642 90.564 41.835 90.564 49.286 98.015 49.286 107.208c0 3.48699999999999-1.081 6.718-2.914 9.393 4.375-2.999 7.252-8.026 7.252-13.731C53.624 93.678 46.172 86.227 36.98 86.227z" id="path-9" class="cls-7" fill-rule="evenodd"/><path d="M198.374 102.87c0 9.193-7.45099999999999 16.645-16.644 16.645-9.19199999999998.0-16.643-7.452-16.643-16.645C165.087 93.678 172.538 86.226 181.73 86.226 190.923 86.226 198.374 93.678 198.374 102.87z" id="path-10" class="cls-4" fill-rule="evenodd"/><path d="M181.73 86.227C176.026 86.227 170.999 89.103 168.001 93.478 170.675 91.644 173.906 90.564 177.392 90.564 186.585 90.564 194.037 98.015 194.037 107.208 194.037 110.695 192.956 113.926 191.123 116.6 195.498 113.602 198.374 108.575 198.374 102.87 198.374 93.678 190.922 86.227 181.73 86.227z" id="path-11" class="cls-7" fill-rule="evenodd"/><path d="M130.248 65.799s-46.701.0-46.701.0S83.547 58.57 83.547 58.57s46.701.0 46.701.0S130.248 65.799 130.248 65.799z" id="path-12" class="cls-3" fill-rule="evenodd"/></g></svg>

<svg xmlns="http://www.w3.org/2000/svg" xmlns:xlink="http://www.w3.org/1999/xlink" preserveAspectRatio="xMidYMid" width="218" height="120" viewBox="0 0 218 120">
  <defs>
    <style>

      .cls-3 {
        fill: #142a3b;
      }

      .cls-4 {
        fill: #fbb713;
      }

      .cls-6 {
        fill: #ff3a2f;
      }

      .cls-7 {
        fill: #020403;
        opacity: 0.35;
      }

      .cls-8 {
        fill: #ffffff;
      }
    </style>
  </defs>
  <g id="group-48svg">
    <path d="M72.117,86.226 C72.117,86.226 -0.007,86.226 -0.007,86.226 C-0.007,86.226 -0.007,76.979 -0.007,76.979 C-0.007,76.979 72.117,76.979 72.117,76.979 C72.117,76.979 72.117,86.226 72.117,86.226 Z" id="path-1" class="cls-3" fill-rule="evenodd"/>
    <path d="M102.142,28.353 C102.142,28.353 102.142,0.012 102.142,0.012 C102.142,0.012 112.029,0.012 112.029,0.012 C112.029,0.012 112.029,28.353 112.029,28.353 C112.029,28.353 102.142,28.353 102.142,28.353 Z" id="path-2" class="cls-4" fill-rule="evenodd"/>
    <path d="M216.867,86.226 C216.867,86.226 144.744,86.226 144.744,86.226 C144.744,86.226 144.744,76.979 144.744,76.979 C144.744,76.979 216.867,76.979 216.867,76.979 C216.867,76.979 216.867,86.226 216.867,86.226 Z" id="path-3" class="cls-3" fill-rule="evenodd"/>
    <path d="M153.419,65.883 C153.419,91.417 132.720,112.118 107.186,112.118 C81.653,112.118 60.954,91.417 60.954,65.883 C60.954,40.349 107.186,15.312 107.186,15.312 C107.186,15.312 153.419,40.349 153.419,65.883 Z" id="path-4" class="cls-6" fill-rule="evenodd"/>
    <path d="M153.191,62.904 C153.153,62.624 153.103,62.343 153.055,62.064 C152.921,61.287 152.748,60.511 152.540,59.738 C152.476,59.505 152.426,59.271 152.356,59.039 C152.066,58.069 151.723,57.102 151.326,56.140 C151.238,55.928 151.133,55.717 151.041,55.505 C150.702,54.729 150.332,53.960 149.931,53.193 C149.784,52.913 149.637,52.632 149.483,52.353 C149.013,51.503 148.513,50.658 147.976,49.821 C147.910,49.718 147.851,49.613 147.784,49.510 C147.177,48.579 146.523,47.661 145.844,46.750 C145.646,46.484 145.441,46.223 145.238,45.959 C144.701,45.264 144.148,44.574 143.576,43.892 C143.375,43.651 143.178,43.409 142.972,43.170 C142.220,42.295 141.446,41.431 140.647,40.580 C140.494,40.416 140.333,40.258 140.178,40.095 C139.498,39.383 138.805,38.681 138.100,37.989 C137.855,37.749 137.610,37.509 137.362,37.270 C136.624,36.561 135.877,35.862 135.121,35.175 C134.993,35.060 134.867,34.940 134.740,34.826 C133.847,34.023 132.946,33.241 132.040,32.473 C131.838,32.302 131.636,32.137 131.434,31.967 C130.685,31.340 129.935,30.727 129.186,30.128 C128.991,29.972 128.795,29.812 128.600,29.658 C126.748,28.192 124.912,26.811 123.137,25.531 C122.979,25.417 122.821,25.303 122.664,25.190 C121.814,24.581 120.975,23.990 120.162,23.429 C120.141,23.414 120.119,23.399 120.099,23.384 C119.200,22.766 118.327,22.177 117.487,21.620 C114.608,19.712 112.112,18.175 110.302,17.101 C110.302,17.101 110.302,17.101 110.302,17.101 C109.827,16.819 109.401,16.570 109.025,16.352 C108.977,16.324 108.939,16.302 108.893,16.276 C108.577,16.093 108.293,15.931 108.060,15.800 C108.017,15.776 107.975,15.751 107.935,15.729 C107.740,15.620 107.578,15.528 107.459,15.463 C107.430,15.446 107.387,15.422 107.363,15.408 C107.266,15.355 107.187,15.312 107.187,15.312 C107.187,15.312 107.039,15.392 106.813,15.518 C106.621,15.626 106.382,15.758 106.044,15.952 C106.038,15.955 106.029,15.960 106.023,15.964 C105.783,16.100 105.510,16.257 105.203,16.435 C105.503,16.649 105.812,16.881 106.115,17.101 C106.115,17.101 104.070,17.101 104.070,17.101 C101.568,18.587 97.757,20.954 93.422,23.979 C93.422,23.979 114.889,23.979 114.889,23.979 C125.767,33.226 136.069,45.153 136.069,57.208 C136.069,82.742 115.370,103.442 89.837,103.442 C85.833,103.442 81.969,102.879 78.264,101.922 C80.051,103.359 81.961,104.646 83.951,105.809 C84.189,105.947 84.416,106.103 84.656,106.238 C85.380,106.643 86.132,107.003 86.879,107.370 C87.396,107.623 87.908,107.886 88.436,108.120 C89.115,108.423 89.810,108.695 90.507,108.966 C91.146,109.212 91.788,109.454 92.440,109.674 C93.087,109.892 93.742,110.096 94.402,110.286 C95.156,110.503 95.918,110.695 96.687,110.873 C97.290,111.015 97.892,111.158 98.504,111.275 C99.415,111.449 100.341,111.578 101.271,111.697 C101.771,111.762 102.265,111.846 102.770,111.894 C104.225,112.031 105.696,112.118 107.187,112.118 C121.549,112.118 134.382,105.567 142.862,95.292 C143.804,94.151 144.692,92.962 145.523,91.733 C150.508,84.354 153.419,75.459 153.419,65.883 C153.419,64.889 153.326,63.895 153.191,62.904 Z" id="path-5" class="cls-7" fill-rule="evenodd"/>
    <path d="M72.039,84.273 C70.531,84.273 69.122,83.322 68.614,81.812 C66.890,76.694 66.015,71.334 66.015,65.883 C66.015,59.665 68.378,53.091 73.037,46.339 C74.170,44.698 76.422,44.284 78.063,45.418 C79.707,46.552 80.120,48.802 78.985,50.446 C75.176,55.966 73.243,61.160 73.243,65.883 C73.243,70.548 73.990,75.131 75.466,79.504 C76.102,81.396 75.086,83.446 73.194,84.083 C72.811,84.213 72.423,84.273 72.039,84.273 Z" id="path-6" class="cls-8" fill-rule="evenodd"/>
    <path d="M144.172,20.927 C144.172,20.927 72.050,20.927 72.050,20.927 C72.050,20.927 72.050,11.680 72.050,11.680 C72.050,11.680 144.172,11.680 144.172,11.680 C144.172,11.680 144.172,20.927 144.172,20.927 Z" id="path-7" class="cls-3" fill-rule="evenodd"/>
    <path d="M53.624,102.870 C53.624,112.063 46.172,119.515 36.980,119.515 C27.788,119.515 20.336,112.063 20.336,102.870 C20.336,93.678 27.788,86.226 36.980,86.226 C46.172,86.226 53.624,93.678 53.624,102.870 Z" id="path-8" class="cls-4" fill-rule="evenodd"/>
    <path d="M36.980,86.227 C31.275,86.227 26.249,89.103 23.250,93.478 C25.925,91.644 29.155,90.564 32.642,90.564 C41.835,90.564 49.286,98.015 49.286,107.208 C49.286,110.695 48.205,113.926 46.372,116.601 C50.747,113.602 53.624,108.575 53.624,102.870 C53.624,93.678 46.172,86.227 36.980,86.227 Z" id="path-9" class="cls-7" fill-rule="evenodd"/>
    <path d="M198.374,102.870 C198.374,112.063 190.923,119.515 181.730,119.515 C172.538,119.515 165.087,112.063 165.087,102.870 C165.087,93.678 172.538,86.226 181.730,86.226 C190.923,86.226 198.374,93.678 198.374,102.870 Z" id="path-10" class="cls-4" fill-rule="evenodd"/>
    <path d="M181.730,86.227 C176.026,86.227 170.999,89.103 168.001,93.478 C170.675,91.644 173.906,90.564 177.392,90.564 C186.585,90.564 194.037,98.015 194.037,107.208 C194.037,110.695 192.956,113.926 191.123,116.600 C195.498,113.602 198.374,108.575 198.374,102.870 C198.374,93.678 190.922,86.227 181.730,86.227 Z" id="path-11" class="cls-7" fill-rule="evenodd"/>
    <path d="M130.248,65.799 C130.248,65.799 83.547,65.799 83.547,65.799 C83.547,65.799 83.547,58.570 83.547,58.570 C83.547,58.570 130.248,58.570 130.248,58.570 C130.248,58.570 130.248,65.799 130.248,65.799 Z" id="path-12" class="cls-3" fill-rule="evenodd"/>
  </g>
</svg>
